X: 1
T:The Wild Irishman
T:Glenties , The
M:4/4
F:http://blackrosetheband.googlepages.com/ABCTUNES.ABC May 2009
L:1/8
S:Altan: The Blue Idol - Track 09, Tune 4
R:reel
K:Dmaj
|"D"d2fd gdfd|dfed "A"cdec|"D"d2fd gdfd|"G"fgfe "A"dcBc|
"D"d2fd gdfd|dfed "A"cdeg|"D"f3f "G"g2ge|"D"dcdf edcB|
|"A"A3f eAAA|eAfA edcB|Acde "D"fgfe|"G"dcdf edcB|
"A"A2gf eAAA|eAfA edcB|Acde "D"fgfe|"G"dcBc|

